public/illustrations/_fruits.svg

<svg width="266" height="265" viewBox="0 0 266 265" fill="none" xmlns="http://www.w3.org/2000/svg">
<path d="M73.7112 50.3588C71.729 49.0845 70.7379 48.235 69.4636 47.5271C62.6675 42.9963 56.5793 37.7576 51.199 31.6695C48.3672 28.6961 46.2434 25.0149 45.2523 21.0505C44.5444 18.6435 44.4028 16.2366 44.8276 13.8297C45.2523 11.4227 46.1018 9.15733 47.3761 7.03354C48.3672 5.4761 49.6415 4.0602 51.199 2.92752C52.7564 1.93641 54.4554 1.22848 56.4376 0.803726C64.3665 -0.612134 71.4458 1.22848 76.4014 7.88302C78.8083 11.4227 80.9321 15.1039 82.7728 18.7852C83.4807 19.9179 84.047 21.1921 85.0381 23.3159L90.2768 5.75923V5.05131C90.9848 1.51166 93.3918 -0.470548 96.3651 0.0957962C99.3384 0.66214 101.321 3.77703 100.471 7.17509C99.9047 9.58206 99.3384 11.989 98.4889 14.2544C95.0908 23.5991 93.2502 33.2269 91.268 42.8548C90.9848 44.4122 90.8432 45.8281 90.8432 47.3855C108.258 52.0579 118.028 62.8184 119.444 81.083L122.417 79.6671C130.912 75.7027 139.974 72.7294 149.46 72.5878C155.265 72.5878 161.212 73.5789 167.017 74.1452C168.291 74.1452 169.565 74.57 170.84 74.8532C172.68 72.7294 174.379 70.6056 176.078 68.4818C181.6 61.6857 188.821 56.5886 195.9 51.4915C201.705 47.2439 207.935 43.7043 214.023 39.8815C215.439 39.032 216.714 38.0409 218.13 37.0498C220.536 35.4923 222.66 35.6339 224.501 37.3329C225.35 38.1824 225.917 39.3152 226.058 40.5894C226.058 41.8637 225.775 42.9963 224.926 43.9874C223.51 45.6865 221.811 46.9608 219.97 48.0935C216.855 50.0757 213.74 51.6331 210.625 53.4737C209.634 54.0401 208.785 54.748 207.794 55.5975C213.74 56.3054 219.262 56.8718 224.926 57.5798C237.102 59.1372 248.854 62.1105 260.322 66.4997C265.278 68.3403 266.552 72.4463 263.296 76.6939C256.783 85.3306 248.429 90.7109 237.385 91.5604C219.829 92.9762 204.254 87.7375 189.812 78.2513C188.113 77.1186 186.414 75.9859 184.574 74.7116L180.892 78.9592L186.131 81.7909C198.874 88.5871 206.803 99.206 211.05 112.798C214.873 125.116 213.174 136.868 206.803 148.053C203.263 154.283 199.723 160.513 193.918 165.185C192.078 166.601 190.379 168.017 188.396 169.574V170.99C192.502 189.255 189.246 206.387 180.609 222.669C171.831 239.376 157.955 250.42 141.531 258.632C135.301 261.464 128.647 263.163 121.851 263.587C114.063 264.437 106.135 264.578 98.3473 263.87C87.0203 262.738 76.2598 258.915 66.7735 252.685C58.8446 247.588 51.7653 241.5 45.3939 234.421C38.8809 227.341 33.7838 218.846 30.8105 209.643C30.5273 208.652 30.1025 207.802 29.3946 207.094C28.6867 206.387 27.8372 205.82 26.9877 205.395C24.5807 204.404 22.4569 202.847 20.6163 201.148C16.7934 197.75 13.1121 194.069 9.57248 190.529C4.61695 185.573 2.06842 179.202 0.935729 172.406C-0.621723 164.052 -0.196989 155.416 1.92681 147.204C4.75854 136.302 10.9884 127.382 19.342 120.019C21.749 117.895 24.1559 115.772 26.5629 113.648C32.0847 109.117 36.474 103.595 39.872 97.2238C43.8365 89.7198 47.6593 82.2157 50.9158 74.4284C55.4465 63.6679 61.5348 54.748 73.8528 50.3588H73.7112ZM104.435 254.384C109.391 254.101 114.488 254.101 119.444 253.676C128.08 253.11 136.434 250.42 143.655 245.747C146.345 243.907 149.035 242.208 151.584 240.367C163.902 231.589 172.822 218.988 176.928 204.546C177.919 200.865 178.627 197.042 179.193 193.219C180.326 185.432 180.184 177.786 177.211 170.565C175.512 166.459 173.388 162.495 171.264 158.531C170.556 157.398 169.565 156.548 168.433 156.124C164.893 154.566 161.212 153.292 157.53 152.301C155.123 151.734 152.717 151.593 150.31 151.876C141.814 152.442 133.744 154.991 125.532 156.973C117.461 159.097 108.825 158.531 101.037 155.274C95.9403 153.15 90.8432 151.026 85.8877 148.62C80.0826 146.071 73.8528 144.797 67.623 144.938C64.9328 144.938 62.2427 145.646 59.8357 146.92C53.4643 150.319 48.2256 155.557 44.686 161.929C36.7571 175.238 35.766 189.538 39.5888 204.263C42.279 214.457 47.8009 223.802 55.4466 231.164C69.1805 244.615 84.3302 254.667 104.435 254.809V254.384ZM107.55 146.637C107.692 145.788 107.834 144.938 107.834 144.089C107.409 137.434 106.135 131.204 102.595 125.399C99.1968 119.878 96.0819 114.356 92.967 108.692C91.4096 105.719 90.1353 102.604 89.1441 99.4892C88.7194 98.3565 88.7194 97.0822 89.1441 95.9495C89.5689 94.8168 90.56 93.9673 91.6927 93.401C94.0997 92.4099 96.6482 93.401 98.2057 95.9495C98.4889 96.5159 98.772 97.0822 99.0552 97.6486C101.745 104.869 105.851 111.099 109.674 117.754C110.099 118.32 110.524 118.886 111.09 119.311C115.054 115.347 115.196 114.922 113.355 110.108C113.214 109.683 112.931 109.117 112.789 108.692C111.798 105.577 110.807 102.321 109.957 99.0644C108.542 92.6931 108.117 86.0385 108.542 79.5256C108.825 75.9859 107.692 72.5878 105.568 69.7561C102.736 66.358 99.7632 63.3847 96.3651 60.553C94.666 59.4203 92.6838 58.7124 90.7016 58.4292C83.9055 57.155 77.8172 58.9956 71.8706 62.2521C66.0655 65.5086 63.0922 71.3135 60.4021 77.2602C57.004 84.6226 53.7475 91.9851 50.0662 99.206C45.8186 107.984 39.5889 115.772 32.0848 122.143C29.961 123.842 27.8372 125.824 25.7134 127.665C12.5458 139.275 7.87345 153.858 10.5636 170.99C11.2715 175.804 13.3953 180.193 16.6518 183.591C18.9172 185.998 21.3242 188.405 23.5896 190.812C24.5807 191.803 25.7133 192.511 27.2708 193.927V187.131C27.554 169.857 33.7838 155.132 46.5266 143.381C51.3405 138.708 57.5703 135.735 64.3665 134.886C72.8617 134.036 81.3569 135.452 89.1441 138.992C93.5333 140.832 97.781 142.956 102.17 144.797C103.869 145.505 105.568 146.071 107.409 146.779L107.55 146.637ZM123.267 106.993C127.939 103.878 132.186 100.763 136.576 97.9317C141.956 94.3921 148.327 92.5515 154.84 92.9762C165.601 93.5426 171.689 102.887 167.583 112.798C166.167 116.48 164.043 119.878 161.353 122.709C158.663 125.541 155.407 127.806 151.725 129.364C147.619 131.204 143.372 132.479 139.124 134.036L142.239 142.531L144.08 142.248C148.894 141.54 153.708 140.408 158.522 141.823C162.911 143.098 167.3 144.513 171.548 146.354C173.955 147.204 176.078 148.62 177.777 150.319C179.618 152.018 181.034 154.141 181.883 156.548C182.45 157.681 183.016 158.814 183.724 159.946C184.857 159.097 185.565 158.531 186.273 157.964C191.511 153.717 194.909 148.053 197.883 142.39C201.281 135.877 203.546 129.081 202.13 121.293C199.299 105.294 190.803 94.1089 175.795 88.0207C171.123 91.9851 167.017 90.5692 166.026 84.7642C152.15 80.375 133.602 83.2067 119.585 93.2593C120.152 98.0733 121.426 102.746 123.408 106.993H123.267ZM192.502 67.7739C193.352 68.4818 193.777 68.9066 194.201 69.3314C202.272 75.4196 211.617 78.6761 221.244 80.9414C227.474 82.3573 233.846 82.3573 239.934 80.9414C244.323 80.0919 248.287 77.8265 251.119 74.4284L249.137 73.7205C241.067 71.0304 232.855 69.0482 224.501 67.9155C217.705 67.066 210.909 66.4996 204.112 66.358C200.148 66.2164 196.184 66.6412 192.361 67.7739H192.502ZM119.868 124.833H127.939C135.16 124.55 142.239 122.851 148.611 119.594C152.858 117.471 156.256 113.789 158.097 109.4C159.654 105.577 158.238 103.454 154.132 103.17C150.734 103.029 147.195 103.737 144.221 105.436C135.018 110.25 127.656 117.046 119.868 124.833ZM78.242 40.8725C78.3836 40.4478 78.5252 39.8814 78.5252 39.4567C77.2509 30.5368 73.8528 22.0416 68.7557 14.5376C67.4814 12.8386 65.6408 11.5643 63.6586 10.8564C61.2516 10.0069 58.5614 9.72368 56.4376 11.9891C55.4465 12.9802 54.8802 14.2544 54.7386 15.5287C54.597 16.9446 54.7386 18.2188 55.4466 19.4931C56.1545 21.1921 57.2872 22.8912 58.5614 24.307C62.5259 28.2715 66.6319 32.2358 70.8795 35.917C73.2865 37.7576 75.6934 39.4567 78.242 41.0142V40.8725ZM128.647 134.886C126.523 135.027 124.682 135.169 122.7 135.452C120.86 135.594 118.877 134.744 117.178 136.018C117.603 139.983 118.028 143.664 118.453 147.912L131.903 144.797C130.771 141.399 129.779 138.425 128.647 135.027V134.886Z" fill="#102185"/>
</svg>

<svg xmlns="http://www.w3.org/2000/svg" width="266" height="265" fill="none" viewBox="0 0 266 265"><path fill="#102185" d="M73.711 50.359c-1.982-1.275-2.973-2.124-4.247-2.832-6.797-4.53-12.885-9.77-18.265-15.858-2.832-2.973-4.956-6.654-5.947-10.619q-1.062-3.61-.424-7.22a19.8 19.8 0 0 1 2.548-6.796c.991-1.558 2.266-2.974 3.823-4.106 1.557-.992 3.256-1.7 5.239-2.124 7.929-1.416 15.008.424 19.963 7.079a95 95 0 0 1 6.372 10.902c.708 1.133 1.274 2.407 2.265 4.53L90.277 5.76v-.708c.708-3.54 3.115-5.522 6.088-4.955 2.973.566 4.956 3.681 4.106 7.08-.566 2.406-1.133 4.813-1.982 7.078-3.398 9.345-5.239 18.973-7.221 28.6a24.5 24.5 0 0 0-.425 4.532c17.415 4.672 27.185 15.432 28.601 33.697l2.973-1.416c8.495-3.964 17.557-6.938 27.043-7.08 5.805 0 11.752.992 17.557 1.558 1.274 0 2.548.425 3.823.708 1.84-2.124 3.539-4.247 5.238-6.371 5.522-6.796 12.743-11.893 19.822-16.99 5.805-4.248 12.035-7.788 18.123-11.61 1.416-.85 2.691-1.841 4.107-2.832 2.406-1.558 4.53-1.416 6.371.283a5.44 5.44 0 0 1 1.557 3.256c0 1.275-.283 2.407-1.132 3.398-1.416 1.7-3.115 2.974-4.956 4.106-3.115 1.983-6.23 3.54-9.345 5.38-.991.567-1.84 1.275-2.831 2.124 5.946.708 11.468 1.275 17.132 1.983 12.176 1.557 23.928 4.53 35.396 8.92 4.956 1.84 6.23 5.946 2.974 10.194-6.513 8.637-14.867 14.017-25.911 14.866-17.556 1.416-33.131-3.823-47.573-13.309a347 347 0 0 1-5.238-3.54l-3.682 4.248 5.239 2.832c12.743 6.796 20.672 17.415 24.919 31.007 3.823 12.318 2.124 24.07-4.247 35.255-3.54 6.23-7.08 12.46-12.885 17.132-1.84 1.416-3.539 2.832-5.522 4.389v1.416c4.106 18.265.85 35.397-7.787 51.679-8.778 16.707-22.654 27.751-39.078 35.963-6.23 2.832-12.884 4.531-19.68 4.955-7.788.85-15.716.991-23.504.283a70 70 0 0 1-31.573-11.185c-7.93-5.097-15.009-11.185-21.38-18.264-6.513-7.08-11.61-15.575-14.583-24.778-.284-.991-.709-1.841-1.416-2.549-.708-.707-1.558-1.274-2.407-1.699-2.407-.991-4.531-2.548-6.372-4.247-3.823-3.398-7.504-7.079-11.044-10.619-4.955-4.956-7.504-11.327-8.636-18.123-1.558-8.354-1.133-16.99.99-25.202 2.833-10.902 9.062-19.822 17.416-27.185l7.22-6.371c5.523-4.531 9.912-10.053 13.31-16.424 3.965-7.504 7.787-15.008 11.044-22.796 4.53-10.76 10.619-19.68 22.937-24.07zm30.724 204.025c4.956-.283 10.053-.283 15.009-.708 8.636-.566 16.99-3.256 24.211-7.929 2.69-1.84 5.38-3.539 7.929-5.38 12.318-8.778 21.238-21.379 25.344-35.821.991-3.681 1.699-7.504 2.265-11.327 1.133-7.787.991-15.433-1.982-22.654-1.699-4.106-3.823-8.07-5.947-12.034-.708-1.133-1.699-1.983-2.831-2.407a76.6 76.6 0 0 0-10.903-3.823 20.7 20.7 0 0 0-7.22-.425c-8.496.566-16.566 3.115-24.778 5.097a38.3 38.3 0 0 1-24.495-1.699c-5.097-2.124-10.194-4.248-15.15-6.654-5.804-2.549-12.034-3.823-18.264-3.682-2.69 0-5.38.708-7.787 1.982-6.372 3.399-11.61 8.637-15.15 15.009-7.929 13.309-8.92 27.609-5.097 42.334 2.69 10.194 8.212 19.539 15.858 26.901 13.733 13.451 28.883 23.503 48.988 23.645zm3.115-107.747c.142-.849.284-1.699.284-2.548-.425-6.655-1.699-12.885-5.239-18.69-3.398-5.521-6.513-11.043-9.628-16.707a57.5 57.5 0 0 1-3.823-9.203 5.08 5.08 0 0 1 0-3.54c.425-1.132 1.416-1.982 2.549-2.548 2.407-.991 4.955 0 6.513 2.549l.85 1.699c2.689 7.22 6.795 13.45 10.618 20.105.425.566.85 1.132 1.416 1.557 3.964-3.964 4.106-4.389 2.265-9.203-.141-.425-.424-.991-.566-1.416-.991-3.115-1.982-6.371-2.832-9.628-1.415-6.37-1.84-13.025-1.415-19.538.283-3.54-.85-6.938-2.974-9.77a70.7 70.7 0 0 0-9.203-9.203c-1.699-1.133-3.681-1.84-5.663-2.124-6.796-1.274-12.885.567-18.831 3.823-5.805 3.257-8.779 9.062-11.469 15.008-3.398 7.363-6.654 14.725-10.336 21.946-4.247 8.778-10.477 16.566-17.981 22.937-2.124 1.699-4.248 3.681-6.372 5.522-13.167 11.61-17.84 26.193-15.15 43.325.708 4.814 2.832 9.203 6.089 12.601 2.265 2.407 4.672 4.814 6.938 7.221.99.991 2.123 1.699 3.68 3.115v-6.796c.284-17.274 6.514-31.999 19.257-43.75 4.813-4.673 11.043-7.646 17.84-8.495 8.495-.85 16.99.566 24.777 4.106 4.39 1.84 8.637 3.964 13.026 5.805 1.699.708 3.398 1.274 5.239 1.982zm15.717-39.644c4.672-3.115 8.919-6.23 13.309-9.061 5.38-3.54 11.751-5.38 18.264-4.956 10.761.567 16.849 9.911 12.743 19.822-1.416 3.682-3.54 7.08-6.23 9.911a28.6 28.6 0 0 1-9.628 6.655c-4.106 1.84-8.353 3.115-12.601 4.672l3.115 8.495 1.841-.283c4.814-.708 9.628-1.84 14.442-.425 4.389 1.275 8.778 2.69 13.026 4.531 2.407.85 4.53 2.266 6.229 3.965a15.46 15.46 0 0 1 4.106 6.229c.567 1.133 1.133 2.266 1.841 3.398a90 90 0 0 0 2.549-1.982c5.238-4.247 8.636-9.911 11.61-15.574 3.398-6.513 5.663-13.309 4.247-21.097-2.831-15.999-11.327-27.184-26.335-33.272-4.672 3.964-8.778 2.548-9.769-3.257-13.876-4.389-32.424-1.557-46.441 8.495.567 4.814 1.841 9.487 3.823 13.734zm69.235-39.22c.85.709 1.275 1.134 1.699 1.558 8.071 6.089 17.416 9.345 27.043 11.61 6.23 1.416 12.602 1.416 18.69 0 4.389-.85 8.353-3.115 11.185-6.513l-1.982-.707c-8.07-2.69-16.282-4.673-24.636-5.806-6.796-.849-13.592-1.415-20.389-1.557-3.964-.142-7.928.283-11.751 1.416zm-72.634 57.06h8.071c7.221-.283 14.3-1.982 20.672-5.239 4.247-2.123 7.645-5.805 9.486-10.194 1.557-3.823.141-5.946-3.965-6.23-3.398-.141-6.937.567-9.911 2.266-9.203 4.814-16.565 11.61-24.353 19.397m-41.626-83.96c.142-.425.283-.992.283-1.416-1.274-8.92-4.672-17.415-9.77-24.92-1.274-1.698-3.114-2.973-5.096-3.68-2.407-.85-5.098-1.133-7.221 1.132a5.95 5.95 0 0 0-1.7 3.54c-.141 1.416 0 2.69.709 3.964.707 1.7 1.84 3.398 3.114 4.814 3.965 3.965 8.07 7.929 12.318 11.61 2.407 1.84 4.814 3.54 7.363 5.097zm50.405 94.013c-2.124.141-3.965.283-5.947.566-1.84.142-3.823-.708-5.522.566.425 3.965.85 7.646 1.275 11.894l13.45-3.115-3.256-9.77z"/></svg>
